packages/foundations/assets/icons/functional/images/audio & video/pause_48.svg

<svg xmlns="http://www.w3.org/2000/svg" width="48" height="48" fill="none"><g clip-path="url(#a)"><path fill="#1A1C1F" fill-rule="evenodd" d="M18 36V12c0-.563.438-1 1-1s1 .438 1 1v24c0 .563-.438 1-1 1s-1-.438-1-1m10 0V12c0-.563.438-1 1-1s1 .438 1 1v24c0 .563-.438 1-1 1s-1-.438-1-1" clip-rule="evenodd"/></g><defs><clipPath id="a"><path fill="#fff" d="M0 0h48v48H0z"/></clipPath></defs></svg>

<svg width="48" height="48" viewBox="0 0 48 48" fill="none" xmlns="http://www.w3.org/2000/svg">
<g clip-path="url(#clip0_2202_443)">
<path fill-rule="evenodd" clip-rule="evenodd" d="M18 36V12C18 11.437 18.438 11 19 11C19.563 11 20 11.438 20 12V36C20 36.563 19.562 37 19 37C18.437 37 18 36.562 18 36ZM28 36V12C28 11.437 28.438 11 29 11C29.563 11 30 11.438 30 12V36C30 36.563 29.562 37 29 37C28.437 37 28 36.562 28 36Z" fill="#1A1C1F"/>
</g>
<defs>
<clipPath id="clip0_2202_443">
<rect width="48" height="48" fill="white"/>
</clipPath>
</defs>
</svg>
